immaginifoto/DSC09077.xmp
<x:xmpmeta xmlns:x="adobe:ns:meta/" x:xmptk="Adobe XMP Core 7.0-c000 1.000000, 0000/00/00-00:00:00        ">
 <rdf:RDF xmlns:rdf="http://www.w3.org/1999/02/22-rdf-syntax-ns#">
  <rdf:Description rdf:about=""
    xmlns:xmp="http://ns.adobe.com/xap/1.0/"
    xmlns:tiff="http://ns.adobe.com/tiff/1.0/"
    xmlns:exif="http://ns.adobe.com/exif/1.0/"
    xmlns:aux="http://ns.adobe.com/exif/1.0/aux/"
    xmlns:exifEX="http://cipa.jp/exif/1.0/"
    xmlns:photoshop="http://ns.adobe.com/photoshop/1.0/"
    xmlns:xmpMM="http://ns.adobe.com/xap/1.0/mm/"
    xmlns:stEvt="http://ns.adobe.com/xap/1.0/sType/ResourceEvent#"
    xmlns:dc="http://purl.org/dc/elements/1.1/"
    xmlns:crd="http://ns.adobe.com/camera-raw-defaults/1.0/"
    xmlns:crs="http://ns.adobe.com/camera-raw-settings/1.0/"
   xmp:Rating="0"
   xmp:CreatorTool="ILME-FX30 v1.00"
   xmp:ModifyDate="2026-07-23T17:06:06.048+02:00"
   xmp:CreateDate="2026-07-23T17:06:06.048+02:00"
   xmp:MetadataDate="2026-07-23T17:24:34+02:00"
   tiff:Make="SONY"
   tiff:Model="ILME-FX30"
   tiff:Orientation="8"
   exif:ExifVersion="0232"
   exif:ExposureTime="1/45"
   exif:ShutterSpeedValue="5491853/1000000"
   exif:FNumber="28/10"
   exif:ApertureValue="2970854/1000000"
   exif:ExposureProgram="1"
   exif:SensitivityType="2"
   exif:RecommendedExposureIndex="800"
   exif:BrightnessValue="-496/2560"
   exif:ExposureBiasValue="0/10"
   exif:MaxApertureValue="760/256"
   exif:MeteringMode="5"
   exif:LightSource="0"
   exif:FocalLength="700/10"
   exif:FileSource="3"
   exif:SceneType="1"
   exif:FocalLengthIn35mmFilm="105"
   exif:CustomRendered="0"
   exif:ExposureMode="1"
   exif:WhiteBalance="0"
   exif:SceneCaptureType="0"
   exif:Contrast="0"
   exif:Saturation="0"
   exif:Sharpness="0"
   exif:DigitalZoomRatio="16/16"
   exif:FocalPlaneXResolution="86709169/32768"
   exif:FocalPlaneYResolution="86709169/32768"
   exif:FocalPlaneResolutionUnit="3"
   exif:DateTimeOriginal="2026-07-23T17:06:06.048+02:00"
   aux:LensInfo="170/10 700/10 28/10 28/10"
   aux:Lens="E 17-70mm F2.8 B070"
   aux:LensDistortInfo="1040439603/1073741824 29512163/1073741824 2030372/1073741824 1746571/1073741824"
   exifEX:LensModel="E 17-70mm F2.8 B070"
   photoshop:DateCreated="2026-07-23T17:06:06.048+02:00"
   photoshop:SidecarForExtension="ARW"
   photoshop:EmbeddedXMPDigest="4900BC77CB0DBCA80610989F7ACC9AF8"
   xmpMM:DocumentID="C59EACF6B56D12398311F6E2CBC7AE60"
   xmpMM:OriginalDocumentID="C59EACF6B56D12398311F6E2CBC7AE60"
   xmpMM:InstanceID="xmp.iid:a16309ec-5bab-154f-8bcc-7018dc54ad00"
   dc:format="image/x-sony-arw"
   crd:CameraProfile="Camera ST"
   crd:LookName=""
   crs:Version="18.4.1"
   crs:CompatibleVersion="234881024"
   crs:ProcessVersion="15.4"
   crs:WhiteBalance="Custom"
   crs:Temperature="2900"
   crs:Tint="-9"
   crs:Exposure2012="+1.05"
   crs:Contrast2012="+27"
   crs:Highlights2012="0"
   crs:Shadows2012="-15"
   crs:Whites2012="+29"
   crs:Blacks2012="+4"
   crs:Texture="+12"
   crs:Clarity2012="+8"
   crs:Dehaze="-21"
   crs:Vibrance="-8"
   crs:Saturation="-11"
   crs:ParametricShadows="0"
   crs:ParametricDarks="0"
   crs:ParametricLights="0"
   crs:ParametricHighlights="0"
   crs:ParametricShadowSplit="25"
   crs:ParametricMidtoneSplit="50"
   crs:ParametricHighlightSplit="75"
   crs:Sharpness="40"
   crs:SharpenRadius="+1.0"
   crs:SharpenDetail="25"
   crs:SharpenEdgeMasking="0"
   crs:LuminanceSmoothing="0"
   crs:ColorNoiseReduction="25"
   crs:ColorNoiseReductionDetail="50"
   crs:ColorNoiseReductionSmoothness="50"
   crs:HueAdjustmentRed="0"
   crs:HueAdjustmentOrange="-7"
   crs:HueAdjustmentYellow="0"
   crs:HueAdjustmentGreen="0"
   crs:HueAdjustmentAqua="0"
   crs:HueAdjustmentBlue="0"
   crs:HueAdjustmentPurple="0"
   crs:HueAdjustmentMagenta="0"
   crs:SaturationAdjustmentRed="0"
   crs:SaturationAdjustmentOrange="+17"
   crs:SaturationAdjustmentYellow="0"
   crs:SaturationAdjustmentGreen="0"
   crs:SaturationAdjustmentAqua="0"
   crs:SaturationAdjustmentBlue="0"
   crs:SaturationAdjustmentPurple="0"
   crs:SaturationAdjustmentMagenta="0"
   crs:LuminanceAdjustmentRed="0"
   crs:LuminanceAdjustmentOrange="0"
   crs:LuminanceAdjustmentYellow="0"
   crs:LuminanceAdjustmentGreen="0"
   crs:LuminanceAdjustmentAqua="0"
   crs:LuminanceAdjustmentBlue="0"
   crs:LuminanceAdjustmentPurple="0"
   crs:LuminanceAdjustmentMagenta="0"
   crs:SplitToningShadowHue="29"
   crs:SplitToningShadowSaturation="5"
   crs:SplitToningHighlightHue="201"
   crs:SplitToningHighlightSaturation="14"
   crs:SplitToningBalance="0"
   crs:ColorGradeMidtoneHue="32"
   crs:ColorGradeMidtoneSat="14"
   crs:ColorGradeShadowLum="0"
   crs:ColorGradeMidtoneLum="0"
   crs:ColorGradeHighlightLum="0"
   crs:ColorGradeBlending="50"
   crs:ColorGradeGlobalHue="0"
   crs:ColorGradeGlobalSat="0"
   crs:ColorGradeGlobalLum="0"
   crs:AutoLateralCA="0"
   crs:LensProfileEnable="0"
   crs:LensManualDistortionAmount="0"
   crs:VignetteAmount="0"
   crs:DefringePurpleAmount="0"
   crs:DefringePurpleHueLo="30"
   crs:DefringePurpleHueHi="70"
   crs:DefringeGreenAmount="0"
   crs:DefringeGreenHueLo="40"
   crs:DefringeGreenHueHi="60"
   crs:PerspectiveUpright="0"
   crs:PerspectiveVertical="0"
   crs:PerspectiveHorizontal="0"
   crs:PerspectiveRotate="0.0"
   crs:PerspectiveAspect="0"
   crs:PerspectiveScale="100"
   crs:PerspectiveX="0.00"
   crs:PerspectiveY="0.00"
   crs:ReshapeAmount="0"
   crs:GrainAmount="0"
   crs:PostCropVignetteAmount="-8"
   crs:PostCropVignetteMidpoint="0"
   crs:PostCropVignetteFeather="100"
   crs:PostCropVignetteRoundness="+19"
   crs:PostCropVignetteStyle="1"
   crs:PostCropVignetteHighlightContrast="0"
   crs:ShadowTint="0"
   crs:RedHue="0"
   crs:RedSaturation="0"
   crs:GreenHue="0"
   crs:GreenSaturation="0"
   crs:BlueHue="0"
   crs:BlueSaturation="0"
   crs:HDREditMode="0"
   crs:OverrideLookVignette="False"
   crs:ToneCurveName2012="Linear"
   crs:CameraProfile="Adobe Standard"
   crs:CameraProfileDigest="C116CC86C6208F7671C2EA98889FDA01"
   crs:HasSettings="True"
   crs:HasCrop="False"
   crs:AlreadyApplied="False">
   <exif:ISOSpeedRatings>
    <rdf:Seq>
     <rdf:li>800</rdf:li>
    </rdf:Seq>
   </exif:ISOSpeedRatings>
   <exif:Flash
    exif:Fired="False"
    exif:Return="0"
    exif:Mode="0"
    exif:Function="True"
    exif:RedEyeMode="False"/>
   <xmpMM:History>
    <rdf:Seq>
     <rdf:li
      stEvt:action="saved"
      stEvt:instanceID="xmp.iid:a16309ec-5bab-154f-8bcc-7018dc54ad00"
      stEvt:when="2026-07-23T17:24:34+02:00"
      stEvt:softwareAgent="Adobe Photoshop Camera Raw 18.4.1 (Windows)"
      stEvt:changed="/metadata"/>
    </rdf:Seq>
   </xmpMM:History>
   <crs:ToneCurvePV2012>
    <rdf:Seq>
     <rdf:li>0, 0</rdf:li>
     <rdf:li>255, 255</rdf:li>
    </rdf:Seq>
   </crs:ToneCurvePV2012>
   <crs:ToneCurvePV2012Red>
    <rdf:Seq>
     <rdf:li>0, 0</rdf:li>
     <rdf:li>255, 255</rdf:li>
    </rdf:Seq>
   </crs:ToneCurvePV2012Red>
   <crs:ToneCurvePV2012Green>
    <rdf:Seq>
     <rdf:li>0, 0</rdf:li>
     <rdf:li>255, 255</rdf:li>
    </rdf:Seq>
   </crs:ToneCurvePV2012Green>
   <crs:ToneCurvePV2012Blue>
    <rdf:Seq>
     <rdf:li>0, 0</rdf:li>
     <rdf:li>255, 255</rdf:li>
    </rdf:Seq>
   </crs:ToneCurvePV2012Blue>
   <crs:PointColors>
    <rdf:Seq>
     <rdf:li>-1.000000, -1.000000, -1.000000, -1.000000, -1.000000, -1.000000, -1.000000, -1.000000, -1.000000, -1.000000, -1.000000, -1.000000, -1.000000, -1.000000, -1.000000, -1.000000, -1.000000, -1.000000, -1.000000</rdf:li>
    </rdf:Seq>
   </crs:PointColors>
   <crs:ColorVariance>
    <rdf:Seq>
     <rdf:li>-50.000000</rdf:li>
    </rdf:Seq>
   </crs:ColorVariance>
   <crs:MaskGroupBasedCorrections>
    <rdf:Seq>
     <rdf:li>
      <rdf:Description
       crs:What="Correction"
       crs:CorrectionAmount="1"
       crs:CorrectionActive="true"
       crs:CorrectionName="Maschera 1"
       crs:CorrectionSyncID="81444193589D5044857A36A55F5AAC70"
       crs:LocalExposure="0"
       crs:LocalHue="0"
       crs:LocalSaturation="0"
       crs:LocalContrast="0"
       crs:LocalClarity="0"
       crs:LocalSharpness="0"
       crs:LocalBrightness="0"
       crs:LocalToningHue="0"
       crs:LocalToningSaturation="0"
       crs:LocalExposure2012="-0.5"
       crs:LocalContrast2012="0"
       crs:LocalHighlights2012="0"
       crs:LocalShadows2012="0"
       crs:LocalWhites2012="0"
       crs:LocalBlacks2012="0"
       crs:LocalClarity2012="0"
       crs:LocalDehaze="0"
       crs:LocalLuminanceNoise="0"
       crs:LocalMoire="0"
       crs:LocalDefringe="0"
       crs:LocalTemperature="0"
       crs:LocalTint="0"
       crs:LocalTexture="0"
       crs:LocalGrain="0"
       crs:LocalCorrectedDepth="0"
       crs:LocalCurveRefineSaturation="100">
      <crs:CorrectionMasks>
       <rdf:Seq>
        <rdf:li>
         <rdf:Description
          crs:What="Mask/Aggregate"
          crs:MaskActive="true"
          crs:MaskName="Pennello 1"
          crs:MaskBlendMode="0"
          crs:MaskInverted="false"
          crs:MaskSyncID="C82CBD16AF937646BF2BBABB7BFAE749"
          crs:MaskValue="1">
         <crs:Masks>
          <rdf:Seq>
           <rdf:li>
            <rdf:Description
             crs:What="Mask/Paint"
             crs:MaskActive="true"
             crs:MaskBlendMode="0"
             crs:MaskInverted="false"
             crs:MaskSyncID="938A7D961EDA1A4F8276C42FD1705BD3"
             crs:MaskValue="1"
             crs:Radius="1.259965"
             crs:Flow="0.5"
             crs:CenterWeight="0.021573">
            <crs:Dabs>
             <rdf:Seq>
              <rdf:li>f 0.5000</rdf:li>
              <rdf:li>h 0.0216</rdf:li>
              <rdf:li>d 0.033042 1.791427</rdf:li>
              <rdf:li>d -0.038333 1.428917</rdf:li>
              <rdf:li>d -0.169525 1.106193</rdf:li>
              <rdf:li>d -0.256407 0.751381</rdf:li>
              <rdf:li>d -0.277881 0.374766</rdf:li>
              <rdf:li>d -0.270504 -0.003061</rdf:li>
              <rdf:li>d -0.254567 0.374172</rdf:li>
              <rdf:li>d -0.237830 0.751327</rdf:li>
              <rdf:li>d -0.127365 1.091062</rdf:li>
              <rdf:li>d 0.027251 1.389537</rdf:li>
              <rdf:li>d 0.132627 1.732891</rdf:li>
              <rdf:li>d 0.170275 2.106638</rdf:li>
              <rdf:li>d 0.181563 2.484249</rdf:li>
             </rdf:Seq>
            </crs:Dabs>
            </rdf:Description>
           </rdf:li>
          </rdf:Seq>
         </crs:Masks>
         </rdf:Description>
        </rdf:li>
       </rdf:Seq>
      </crs:CorrectionMasks>
      </rdf:Description>
     </rdf:li>
     <rdf:li>
      <rdf:Description
       crs:What="Correction"
       crs:CorrectionAmount="1"
       crs:CorrectionActive="true"
       crs:CorrectionName="Maschera 2"
       crs:CorrectionSyncID="8C31EF64568B0D469BA7DB147ABB7C95"
       crs:LocalExposure="0"
       crs:LocalHue="0"
       crs:LocalSaturation="0"
       crs:LocalContrast="0"
       crs:LocalClarity="0"
       crs:LocalSharpness="0"
       crs:LocalBrightness="0"
       crs:LocalToningHue="0"
       crs:LocalToningSaturation="0"
       crs:LocalExposure2012="0.3875"
       crs:LocalContrast2012="0"
       crs:LocalHighlights2012="0"
       crs:LocalShadows2012="0"
       crs:LocalWhites2012="0"
       crs:LocalBlacks2012="0"
       crs:LocalClarity2012="0"
       crs:LocalDehaze="0"
       crs:LocalLuminanceNoise="0"
       crs:LocalMoire="0"
       crs:LocalDefringe="0"
       crs:LocalTemperature="0"
       crs:LocalTint="0"
       crs:LocalTexture="0"
       crs:LocalGrain="0"
       crs:LocalCorrectedDepth="0"
       crs:LocalCurveRefineSaturation="100">
      <crs:CorrectionMasks>
       <rdf:Seq>
        <rdf:li>
         <rdf:Description
          crs:What="Mask/Aggregate"
          crs:MaskActive="true"
          crs:MaskName="Pennello 1"
          crs:MaskBlendMode="0"
          crs:MaskInverted="false"
          crs:MaskSyncID="9385DB483AF1094F81B6680929D27C72"
          crs:MaskValue="1">
         <crs:Masks>
          <rdf:Seq>
           <rdf:li>
            <rdf:Description
             crs:What="Mask/Paint"
             crs:MaskActive="true"
             crs:MaskBlendMode="0"
             crs:MaskInverted="false"
             crs:MaskSyncID="81BA147136FF0840A792427914C22C5B"
             crs:MaskValue="1"
             crs:Radius="0.691582"
             crs:Flow="0.5"
             crs:CenterWeight="0.021573">
            <crs:Dabs>
             <rdf:Seq>
              <rdf:li>f 0.5000</rdf:li>
              <rdf:li>h 0.0216</rdf:li>
              <rdf:li>d 1.006425 0.784675</rdf:li>
              <rdf:li>d 1.015210 0.577619</rdf:li>
              <rdf:li>d 0.985333 0.375042</rdf:li>
              <rdf:li>d 0.910202 0.200844</rdf:li>
              <rdf:li>d 0.839369 0.022640</rdf:li>
              <rdf:li>d 0.776460 -0.162133</rdf:li>
              <rdf:li>d 0.783413 -0.369345</rdf:li>
              <rdf:li>d 0.812084 -0.572314</rdf:li>
              <rdf:li>d 0.847669 -0.371823</rdf:li>
              <rdf:li>d 0.920211 -0.195173</rdf:li>
              <rdf:li>d 1.003913 -0.030000</rdf:li>
              <rdf:li>d 1.079594 0.143663</rdf:li>
              <rdf:li>d 1.130906 0.336332</rdf:li>
              <rdf:li>d 1.148490 0.542123</rdf:li>
              <rdf:li>d 1.147464 0.749592</rdf:li>
              <rdf:li>d 1.175873 0.952643</rdf:li>
              <rdf:li>d 1.202783 1.156153</rdf:li>
             </rdf:Seq>
            </crs:Dabs>
            </rdf:Description>
           </rdf:li>
           <rdf:li>
            <rdf:Description
             crs:What="Mask/Paint"
             crs:MaskActive="true"
             crs:MaskBlendMode="0"
             crs:MaskInverted="false"
             crs:MaskSyncID="584196B10BEEDB4E96F48FCCD781A9B6"
             crs:MaskValue="1"
             crs:Radius="0.691582"
             crs:Flow="0.5"
             crs:CenterWeight="0.021573">
            <crs:Dabs>
             <rdf:Seq>
              <rdf:li>f 0.5000</rdf:li>
              <rdf:li>h 0.0216</rdf:li>
              <rdf:li>d 1.011462 0.627901</rdf:li>
              <rdf:li>d 0.985295 0.424173</rdf:li>
              <rdf:li>d 0.917351 0.243456</rdf:li>
              <rdf:li>d 0.811865 0.109258</rdf:li>
              <rdf:li>d 0.701696 -0.016190</rdf:li>
              <rdf:li>d 0.632539 -0.195869</rdf:li>
              <rdf:li>d 0.591639 -0.394065</rdf:li>
              <rdf:li>d 0.579818 -0.600781</rdf:li>
              <rdf:li>d 0.579549 -0.808255</rdf:li>
             </rdf:Seq>
            </crs:Dabs>
            </rdf:Description>
           </rdf:li>
          </rdf:Seq>
         </crs:Masks>
         </rdf:Description>
        </rdf:li>
       </rdf:Seq>
      </crs:CorrectionMasks>
      </rdf:Description>
     </rdf:li>
    </rdf:Seq>
   </crs:MaskGroupBasedCorrections>
   <crs:Look>
    <rdf:Description
     crs:Name="Vintage 01"
     crs:Amount="2"
     crs:Cluster="Adobe"
     crs:UUID="97291D549FC232787BDFD3353151BB62"
     crs:SupportsMonochrome="false"
     crs:Copyright="© 2018 Adobe Systems, Inc.">
    <crs:Group>
     <rdf:Alt>
      <rdf:li xml:lang="x-default">Vintage</rdf:li>
     </rdf:Alt>
    </crs:Group>
    <crs:Parameters
     crs:Version="18.4.1"
     crs:ProcessVersion="15.4"
     crs:ConvertToGrayscale="False"
     crs:LookTable="E1095149FDB39D7A057BAB208837E2E1"
     crs:RGBTable="D133EC539BB44CE73B8890C50B8D9F9E"
     crs:RGBTableAmount="0.5"/>
    </rdf:Description>
   </crs:Look>
  </rdf:Description>
 </rdf:RDF>
</x:xmpmeta>
